X: 551
T: Aires de Pontevedre
B: good tune book
B: tunes
M:4/4
R: reel
Q: 1/4=100
K:Amixolydian
V:1 
e2|:"A"a2 e2 c2 de|"A"fedc B3 c|"A"dedc B2 cd|"A"edcB A2 e2|
 "A"a2 e2 c2 de|"A"fedc B3 c|"A"dcde fecA|1 "A"edBG A2 e2:|2 "A"edBG A2 Bc||
 |:"Bm"dcdB "F#m"cABc|"G"dcdB "A"cABc|"A"ec"G"dB "A"cABc|"G"dGBd "A"cAce|
 "Em7"g4- gfge|agfe dcde|"D"Addc dcde|agfe dcde|
 "A"c2 cB cBce|agfe dcde|"G"B4 "A"cecA|cecA "G"BdBG|1 "E"B2 e2 "A"A2 Bc:|2 "E"B2 e2 "A"A4||
% abcbook-tune_id 63dcd2a9ec7028b1bd10cc0d
% abcbook-tune_composer_id 
% abcbook-link-0 https://www.youtube.com/watch?v=cFrClpwSWdw
% abcbook-link-title-0 Aires de Pontevedre / Lambeg&amp;Fyfe
% abcbook-boost 1
% abcbook-difficulty 0
% abcbook-tags good tune book
% abcbook-tablature 
% abcbook-transpose 
% abcbook-tuning 
% abcbook-lastupdated 1675551588185
% abcbook-soundfonts 
% abcbook-repeats 1


